; generated by Slic3r 0.9.10b on 2014-01-19 at 09:30:36

; layer_height = 0.24
; perimeters = 2
; top_solid_layers = 4
; bottom_solid_layers = 0
; fill_density = 0.6
; perimeter_speed = 20
; infill_speed = 20
; travel_speed = 60
; nozzle_diameter = 0.5
; filament_diameter = 1.75
; extrusion_multiplier = 1
; perimeters extrusion width = 0.85mm
; infill extrusion width = 0.87mm
; solid infill extrusion width = 0.85mm
; top infill extrusion width = 0.85mm
; first layer extrusion width = 0.48mm

G21 ; set units to millimeters
M107
M104 S205 ; set temperature
G21 ; set units to millimeters
G90 ; use absolute coordinates
M83 ; use relative distances for extrusion
M140 S65; Set bed temperature
G1 Z5 F200 ; lift nozzle
G1 X2 Y50 F2000; Go to wait for warm position
M116; Wait for all temperatures
G10 P0 S205 R0 ; Set extruder temperature
T0; Select extruder
M116; Wait for all temperatures
M109 S205 ; wait for temperature to be reached
G90 ; use absolute coordinates
M83 ; use relative distances for extrusion
G1 F1800.000 E-4.00000
G1 Z0.240 F3600.000
G1 X78.230 Y62.337
G1 F1800.000 E4.00000
G1 X79.780 Y60.457 F600.000 E0.11774
G1 X80.330 Y59.867 E0.03898
G1 X82.060 Y58.237 E0.11486
G1 X82.710 Y57.707 E0.04053
G1 X84.630 Y56.317 E0.11454
G1 X85.310 Y55.877 E0.03914
G1 X87.390 Y54.737 E0.11462
G1 X88.110 Y54.407 E0.03827
G1 X90.320 Y53.527 E0.11495
G1 X91.110 Y53.267 E0.04019
G1 X93.410 Y52.677 E0.11474
G1 X94.230 Y52.517 E0.04037
G1 X96.580 Y52.227 E0.11442
G1 X97.370 Y52.187 E0.03822
G1 X99.750 Y52.187 E0.11501
G1 X100.540 Y52.227 E0.03822
G1 X102.890 Y52.517 E0.11442
G1 X103.710 Y52.677 E0.04037
G1 X106.010 Y53.267 E0.11474
G1 X106.800 Y53.527 E0.04019
G1 X109.010 Y54.407 E0.11495
G1 X109.730 Y54.737 E0.03827
G1 X111.810 Y55.877 E0.11462
G1 X112.490 Y56.317 E0.03914
G1 X114.410 Y57.707 E0.11454
G1 X115.060 Y58.237 E0.04053
G1 X116.790 Y59.867 E0.11486
G1 X117.200 Y60.287 E0.02836
G1 X149.350 Y96.647 E2.34536
G1 X151.410 Y99.137 E0.15616
G1 X151.880 Y99.787 E0.03876
G1 X153.500 Y102.337 E0.14599
G1 X153.900 Y103.057 E0.03980
G1 X155.180 Y105.777 E0.14526
G1 X155.480 Y106.537 E0.03948
G1 X156.410 Y109.407 E0.14579
G1 X156.610 Y110.177 E0.03844
G1 X157.180 Y113.137 E0.14566
G1 X157.280 Y113.977 E0.04088
G1 X157.460 Y116.987 E0.14571
G1 X157.460 Y117.767 E0.03769
G1 X157.340 Y119.497 E0.08380
G1 X156.930 Y122.787 E0.16021
G1 X156.870 Y123.207 E0.02050
G1 X156.610 Y124.567 E0.06691
G1 X156.410 Y125.357 E0.03938
G1 X155.480 Y128.217 E0.14533
G1 X155.180 Y128.957 E0.03859
G1 X153.900 Y131.687 E0.14570
G1 X153.500 Y132.417 E0.04022
G1 X151.880 Y134.967 E0.14599
G1 X151.410 Y135.617 E0.03876
G1 X149.490 Y137.937 E0.14552
G1 X148.920 Y138.537 E0.03999
G1 X146.720 Y140.597 E0.14564
G1 X146.100 Y141.117 E0.03910
G1 X143.660 Y142.887 E0.14566
G1 X142.970 Y143.317 E0.03929
G1 X140.330 Y144.767 E0.14555
G1 X139.600 Y145.117 E0.03912
G1 X136.800 Y146.227 E0.14555
G1 X136.020 Y146.477 E0.03958
G1 X133.100 Y147.227 E0.14568
G1 X132.310 Y147.377 E0.03886
G1 X129.320 Y147.757 E0.14565
G1 X128.500 Y147.807 E0.03970
G1 X125.440 Y147.807 E0.14787
G1 X71.250 Y147.407 E2.61869
G1 X70.480 Y147.357 E0.03729
G1 X67.520 Y146.987 E0.14415
G1 X66.720 Y146.837 E0.03933
G1 X63.820 Y146.087 E0.14475
G1 X63.050 Y145.837 E0.03912
G1 X60.270 Y144.737 E0.14447
G1 X59.550 Y144.397 E0.03848
G1 X56.970 Y142.987 E0.14208
G1 X56.190 Y142.487 E0.04477
G1 X53.820 Y140.767 E0.14151
G1 X53.170 Y140.237 E0.04053
G1 X50.950 Y138.147 E0.14734
G1 X50.460 Y137.607 E0.03524
G1 X48.550 Y135.307 E0.14447
G1 X48.070 Y134.647 E0.03944
G1 X46.470 Y132.127 E0.14425
G1 X46.070 Y131.397 E0.04022
G1 X44.800 Y128.687 E0.14462
G1 X44.510 Y127.957 E0.03796
G1 X43.580 Y125.117 E0.14441
G1 X43.370 Y124.307 E0.04044
G1 X42.810 Y121.367 E0.14462
G1 X42.710 Y120.557 E0.03944
G1 X42.530 Y117.617 E0.14234
G1 X42.520 Y117.217 E0.01934
G1 X42.530 Y116.787 E0.02078
G1 X42.710 Y113.807 E0.14426
G1 X42.810 Y112.987 E0.03992
G1 X43.370 Y110.047 E0.14462
G1 X43.580 Y109.237 E0.04044
G1 X44.510 Y106.397 E0.14441
G1 X44.800 Y105.667 E0.03796
G1 X46.070 Y102.957 E0.14462
G1 X46.470 Y102.227 E0.04022
G1 X48.070 Y99.707 E0.14425
G1 X48.500 Y99.107 E0.03567
G1 X78.184 Y62.393 E2.28145
G1 F1800.000 E-4.00000
G1 X74.279 Y93.670 F3600.000
G1 F1800.000 E4.00000
G1 X77.243 Y94.048 F420.000 E0.14438
G1 X80.080 Y94.777 E0.14153
G1 X82.830 Y95.866 E0.14295
G1 X85.423 Y97.291 E0.14296
G1 X87.816 Y99.030 E0.14296
G1 X89.973 Y101.055 E0.14296
G1 X91.874 Y103.359 E0.14437
G1 X93.443 Y105.832 E0.14153
G1 X94.703 Y108.509 E0.14296
G1 X95.617 Y111.323 E0.14296
G1 X96.172 Y114.229 E0.14296
G1 X96.357 Y117.181 E0.14296
G1 X96.172 Y120.134 E0.14296
G1 X95.617 Y123.040 E0.14296
G1 X94.703 Y125.853 E0.14296
G1 X93.443 Y128.530 E0.14296
G1 X91.874 Y131.003 E0.14153
G1 X89.973 Y133.307 E0.14437
G1 X87.816 Y135.332 E0.14296
G1 X85.423 Y137.071 E0.14296
G1 X82.830 Y138.497 E0.14296
G1 X80.080 Y139.585 E0.14295
G1 X77.214 Y140.321 E0.14296
G1 X74.279 Y140.692 E0.14296
G1 X71.321 Y140.692 E0.14296
G1 X68.386 Y140.321 E0.14296
G1 X65.520 Y139.585 E0.14296
G1 X62.770 Y138.496 E0.14295
G1 X60.177 Y137.071 E0.14296
G1 X57.784 Y135.332 E0.14296
G1 X55.627 Y133.307 E0.14296
G1 X53.742 Y131.028 E0.14295
G1 X52.157 Y128.530 E0.14296
G1 X50.897 Y125.853 E0.14296
G1 X49.983 Y123.040 E0.14296
G1 X49.428 Y120.134 E0.14296
G1 X49.243 Y117.181 E0.14296
G1 X49.428 Y114.229 E0.14296
G1 X49.983 Y111.323 E0.14296
G1 X50.897 Y108.509 E0.14296
G1 X52.157 Y105.832 E0.14296
G1 X53.742 Y103.334 E0.14296
G1 X55.627 Y101.055 E0.14295
G1 X57.784 Y99.030 E0.14296
G1 X60.177 Y97.291 E0.14296
G1 X62.770 Y95.866 E0.14296
G1 X65.520 Y94.777 E0.14295
G1 X68.386 Y94.041 E0.14296
G1 X71.321 Y93.670 E0.14296
G1 X74.207 Y93.670 E0.13945
G1 X74.485 Y94.109 F3600.000
G1 X74.272 Y94.690
G1 X77.024 Y95.038 F420.000 E0.13403
G1 X79.766 Y95.742 E0.13680
G1 X82.398 Y96.784 E0.13680
G1 X84.879 Y98.148 E0.13680
G1 X87.169 Y99.812 E0.13680
G1 X89.233 Y101.750 E0.13680
G1 X91.037 Y103.931 E0.13680
G1 X92.554 Y106.321 E0.13680
G1 X93.760 Y108.883 E0.13680
G1 X94.634 Y111.575 E0.13680
G1 X95.165 Y114.356 E0.13680
G1 X95.343 Y117.181 E0.13680
G1 X95.165 Y120.006 E0.13680
G1 X94.634 Y122.787 E0.13680
G1 X93.760 Y125.480 E0.13680
G1 X92.554 Y128.041 E0.13680
G1 X91.037 Y130.431 E0.13680
G1 X89.233 Y132.613 E0.13680
G1 X87.169 Y134.550 E0.13680
G1 X84.879 Y136.214 E0.13680
G1 X82.398 Y137.578 E0.13680
G1 X79.766 Y138.620 E0.13680
G1 X77.024 Y139.324 E0.13680
G1 X74.215 Y139.679 E0.13680
G1 X71.385 Y139.679 E0.13680
G1 X68.576 Y139.324 E0.13680
G1 X65.889 Y138.635 E0.13403
G1 X63.202 Y137.578 E0.13954
G1 X60.721 Y136.214 E0.13680
G1 X58.431 Y134.550 E0.13680
G1 X56.367 Y132.613 E0.13680
G1 X54.563 Y130.431 E0.13680
G1 X53.046 Y128.041 E0.13680
G1 X51.840 Y125.480 E0.13680
G1 X50.966 Y122.787 E0.13680
G1 X50.446 Y120.063 E0.13403
G1 X50.257 Y117.181 E0.13954
G1 X50.446 Y114.300 E0.13954
G1 X50.966 Y111.575 E0.13403
G1 X51.840 Y108.883 E0.13680
G1 X53.046 Y106.321 E0.13680
G1 X54.563 Y103.931 E0.13680
G1 X56.367 Y101.750 E0.13680
G1 X58.431 Y99.812 E0.13680
G1 X60.721 Y98.148 E0.13680
G1 X63.202 Y96.784 E0.13680
G1 X65.834 Y95.742 E0.13680
G1 X68.576 Y95.038 E0.13680
G1 X71.385 Y94.683 E0.13680
G1 X74.200 Y94.683 E0.13605
G1 X74.478 Y95.129 F3600.000
G1 F1800.000 E-4.00000
G1 X74.577 Y90.428 F3600.000
G1 X71.023 Y90.428
G1 X61.405 Y92.885
G1 X53.261 Y98.786
G1 X47.860 Y107.272
G1 X45.964 Y117.214
G1 X47.862 Y127.096
G1 X53.351 Y135.640
G1 X58.461 Y139.841
G1 X59.021 Y135.635
G1 F1800.000 E4.00000
G1 X58.801 Y135.415 F300.000 E0.01506
G1 X60.977 Y136.906 F3600.000
G1 X61.101 Y137.029 F300.000 E0.00845
G1 X62.502 Y137.743 E0.07613
G1 X62.625 Y137.867 E0.00845
G1 X63.764 Y138.319 E0.05932
G1 X63.850 Y138.406 E0.00593
G1 X64.900 Y138.769 E0.05377
G1 X64.986 Y138.856 E0.00593
G1 X65.970 Y139.153 E0.04976
G1 X66.037 Y139.221 E0.00462
G1 X66.893 Y139.390 E0.04224
G1 X66.961 Y139.458 E0.00462
G1 X67.816 Y139.627 E0.04224
G1 X67.884 Y139.695 E0.00462
G1 X68.702 Y139.826 E0.04010
G1 X68.758 Y139.882 E0.00384
G1 X69.487 Y139.925 E0.03537
G1 X69.543 Y139.982 E0.00384
G1 X70.273 Y140.025 E0.03537
G1 X70.329 Y140.081 E0.00384
G1 X71.058 Y140.124 E0.03538
G1 X71.114 Y140.180 E0.00384
G1 X71.782 Y140.161 E0.03233
G1 X71.830 Y140.210 E0.00333
G1 X72.468 Y140.161 E0.03096
G1 X72.517 Y140.210 E0.00333
G1 X73.154 Y140.161 E0.03096
G1 X73.203 Y140.210 E0.00333
G1 X73.840 Y140.161 E0.03096
G1 X73.889 Y140.210 E0.00333
G1 X74.495 Y140.130 E0.02960
G1 X74.539 Y140.173 E0.00298
G1 X75.104 Y140.053 E0.02801
G1 X75.148 Y140.096 E0.00298
G1 X75.714 Y139.976 E0.02801
G1 X75.757 Y140.019 E0.00298
G1 X76.323 Y139.899 E0.02801
G1 X76.366 Y139.942 E0.00298
G1 X76.932 Y139.822 E0.02801
G1 X76.976 Y139.865 E0.00298
G1 X77.497 Y139.701 E0.02648
G1 X77.537 Y139.741 E0.00273
G1 X78.043 Y139.560 E0.02601
G1 X78.083 Y139.600 E0.00273
G1 X78.589 Y139.420 E0.02601
G1 X78.629 Y139.460 E0.00273
G1 X79.135 Y139.280 E0.02601
G1 X79.175 Y139.320 E0.00273
G1 X79.681 Y139.140 E0.02601
G1 X79.721 Y139.180 E0.00273
G1 X80.196 Y138.969 E0.02517
G1 X80.234 Y139.006 E0.00256
G1 X80.688 Y138.774 E0.02469
G1 X80.725 Y138.811 E0.00256
G1 X81.179 Y138.579 E0.02469
G1 X81.217 Y138.617 E0.00257
G1 X81.671 Y138.385 E0.02469
G1 X81.708 Y138.422 E0.00257
G1 X82.163 Y138.190 E0.02469
G1 X82.200 Y138.228 E0.00257
G1 X82.649 Y137.990 E0.02459
G1 X82.685 Y138.026 E0.00245
G1 X83.092 Y137.747 E0.02390
G1 X83.128 Y137.783 E0.00245
G1 X83.535 Y137.504 E0.02390
G1 X83.571 Y137.539 E0.00245
G1 X83.978 Y137.260 E0.02390
G1 X84.013 Y137.296 E0.00245
G1 X84.420 Y137.017 E0.02390
G1 X84.456 Y137.053 E0.00245
G1 X84.863 Y136.773 E0.02390
G1 X84.899 Y136.809 E0.00246
G1 X85.289 Y136.513 E0.02371
G1 X85.324 Y136.547 E0.00239
G1 X85.686 Y136.224 E0.02353
G1 X85.721 Y136.259 E0.00239
G1 X86.084 Y135.935 E0.02353
G1 X86.118 Y135.970 E0.00239
G1 X86.481 Y135.646 E0.02353
G1 X86.516 Y135.681 E0.00239
G1 X86.879 Y135.358 E0.02353
G1 X86.913 Y135.392 E0.00239
G1 X87.276 Y135.069 E0.02353
G1 X87.311 Y135.104 E0.00239
G1 X87.652 Y134.758 E0.02349
G1 X87.686 Y134.793 E0.00236
G1 X88.040 Y134.461 E0.02351
G1 X88.006 Y134.426 E0.00236
G1 X88.360 Y134.094 E0.02351
G1 X88.394 Y134.128 E0.00236
G1 X88.748 Y133.796 E0.02351
G1 X88.714 Y133.761 E0.00236
G1 X89.068 Y133.429 E0.02351
G1 X89.102 Y133.464 E0.00236
G1 X89.456 Y133.131 E0.02351
G1 X89.421 Y133.097 E0.00236
G1 X89.752 Y132.741 E0.02351
G1 X89.787 Y132.776 E0.00237
G1 X90.097 Y132.400 E0.02360
G1 X90.063 Y132.366 E0.00237
G1 X90.408 Y132.025 E0.02349
G1 X90.373 Y131.990 E0.00237
G1 X90.719 Y131.649 E0.02349
G1 X90.684 Y131.615 E0.00237
G1 X91.029 Y131.274 E0.02349
G1 X90.995 Y131.239 E0.00237
G1 X91.340 Y130.898 E0.02349
G1 X91.305 Y130.864 E0.00237
G1 X91.625 Y130.496 E0.02355
G1 X91.589 Y130.461 E0.00241
G1 X91.891 Y130.077 E0.02366
G1 X91.856 Y130.041 E0.00241
G1 X92.157 Y129.657 E0.02366
G1 X92.122 Y129.622 E0.00241
G1 X92.424 Y129.237 E0.02366
G1 X92.389 Y129.202 E0.00241
G1 X92.690 Y128.817 E0.02366
G1 X92.655 Y128.782 E0.00241
G1 X92.957 Y128.397 E0.02366
G1 X92.921 Y128.362 E0.00241
G1 X93.187 Y127.942 E0.02408
G1 X93.151 Y127.905 E0.00251
G1 X93.407 Y127.475 E0.02424
G1 X93.370 Y127.439 E0.00251
G1 X93.627 Y127.009 E0.02424
G1 X93.590 Y126.972 E0.00251
G1 X93.846 Y126.542 E0.02424
G1 X93.810 Y126.505 E0.00251
G1 X94.066 Y126.075 E0.02424
G1 X94.029 Y126.039 E0.00251
G1 X94.278 Y125.601 E0.02436
G1 X94.239 Y125.563 E0.00265
G1 X94.446 Y125.083 E0.02528
G1 X94.408 Y125.045 E0.00265
G1 X94.615 Y124.566 E0.02528
G1 X94.576 Y124.527 E0.00265
G1 X94.783 Y124.048 E0.02528
G1 X94.744 Y124.009 E0.00265
G1 X94.951 Y123.530 E0.02528
G1 X94.913 Y123.491 E0.00265
G1 X95.119 Y123.012 E0.02528
G1 X95.081 Y122.973 E0.00265
G1 X95.240 Y122.446 E0.02666
G1 X95.198 Y122.404 E0.00285
G1 X95.350 Y121.870 E0.02691
G1 X95.308 Y121.828 E0.00285
G1 X95.460 Y121.293 E0.02691
G1 X95.418 Y121.252 E0.00285
G1 X95.570 Y120.717 E0.02691
G1 X95.528 Y120.675 E0.00285
G1 X95.680 Y120.141 E0.02691
G1 X95.638 Y120.099 E0.00284
G1 X95.728 Y119.503 E0.02918
G1 X95.682 Y119.457 E0.00314
G1 X95.769 Y118.858 E0.02934
G1 X95.723 Y118.812 E0.00314
G1 X95.810 Y118.212 E0.02934
G1 X95.764 Y118.166 E0.00314
G1 X95.850 Y117.566 E0.02934
G1 X95.804 Y117.520 E0.00314
G1 X95.856 Y116.886 E0.03083
G1 X95.804 Y116.834 E0.00356
G1 X95.810 Y116.153 E0.03294
G1 X95.758 Y116.101 E0.00356
G1 X95.764 Y115.421 E0.03294
G1 X95.712 Y115.369 E0.00356
G1 X95.718 Y114.689 E0.03294
G1 X95.666 Y114.637 E0.00356
G1 X95.619 Y113.904 E0.03556
G1 X95.558 Y113.843 E0.00419
G1 X95.457 Y113.056 E0.03841
G1 X95.396 Y112.995 E0.00419
G1 X95.295 Y112.208 E0.03840
G1 X95.234 Y112.147 E0.00419
G1 X95.117 Y111.344 E0.03930
G1 X95.041 Y111.268 E0.00519
G1 X94.787 Y110.327 E0.04718
G1 X94.711 Y110.251 E0.00519
G1 X94.457 Y109.311 E0.04718
G1 X94.381 Y109.235 E0.00519
G1 X94.018 Y108.186 E0.05372
G1 X93.917 Y108.084 E0.00696
G1 X93.408 Y106.890 E0.06286
G1 X93.307 Y106.788 E0.00696
G1 X92.587 Y105.382 E0.07648
G1 X92.429 Y105.224 E0.01080
G1 X91.268 Y103.377 E0.10567
G1 X90.902 Y103.011 E0.02503
G1 X86.941 Y99.050 F3600.000
G1 X86.721 Y98.830 F300.000 E0.01506
G1 X84.709 Y97.504 E0.11668
G1 X84.586 Y97.381 E0.00845
G1 X83.185 Y96.666 E0.07613
G1 X83.061 Y96.543 E0.00845
G1 X81.901 Y96.069 E0.06071
G1 X81.814 Y95.982 E0.00593
G1 X80.765 Y95.619 E0.05377
G1 X80.678 Y95.532 E0.00593
G1 X79.682 Y95.223 E0.05049
G1 X79.615 Y95.155 E0.00462
G1 X78.759 Y94.986 E0.04224
G1 X78.692 Y94.918 E0.00462
G1 X77.836 Y94.749 E0.04224
G1 X77.768 Y94.681 E0.00462
G1 X76.943 Y94.542 E0.04054
G1 X76.887 Y94.486 E0.00384
G1 X76.157 Y94.442 E0.03537
G1 X76.101 Y94.386 E0.00384
G1 X75.372 Y94.343 E0.03537
G1 X75.316 Y94.287 E0.00384
G1 X74.586 Y94.244 E0.03538
G1 X74.530 Y94.188 E0.00384
G1 X73.857 Y94.201 E0.03260
G1 X73.809 Y94.152 E0.00333
G1 X73.171 Y94.201 E0.03096
G1 X73.122 Y94.152 E0.00333
G1 X72.485 Y94.201 E0.03096
G1 X72.436 Y94.152 E0.00333
G1 X71.798 Y94.201 E0.03096
G1 X71.750 Y94.152 E0.00333
G1 X71.139 Y94.228 E0.02978
G1 X71.096 Y94.185 E0.00298
G1 X70.530 Y94.305 E0.02801
G1 X70.487 Y94.262 E0.00298
G1 X69.921 Y94.382 E0.02801
G1 X69.877 Y94.339 E0.00298
G1 X69.312 Y94.459 E0.02801
G1 X69.268 Y94.415 E0.00298
G1 X68.702 Y94.536 E0.02801
G1 X68.659 Y94.492 E0.00298
G1 X68.134 Y94.654 E0.02659
G1 X68.094 Y94.614 E0.00273
G1 X67.588 Y94.794 E0.02601
G1 X67.548 Y94.754 E0.00273
G1 X67.042 Y94.934 E0.02601
G1 X67.002 Y94.894 E0.00273
G1 X66.496 Y95.074 E0.02601
G1 X66.456 Y95.034 E0.00273
G1 X65.950 Y95.214 E0.02601
G1 X65.910 Y95.174 E0.00273
G1 X65.432 Y95.383 E0.02525
G1 X65.394 Y95.345 E0.00256
G1 X64.940 Y95.577 E0.02469
G1 X64.903 Y95.540 E0.00256
G1 X64.449 Y95.772 E0.02469
G1 X64.411 Y95.734 E0.00257
G1 X63.957 Y95.967 E0.02469
G1 X63.919 Y95.929 E0.00257
G1 X63.465 Y96.161 E0.02469
G1 X63.428 Y96.124 E0.00257
G1 X62.976 Y96.358 E0.02465
G1 X62.940 Y96.322 E0.00245
G1 X62.533 Y96.601 E0.02390
G1 X62.497 Y96.566 E0.00245
G1 X62.090 Y96.845 E0.02390
G1 X62.055 Y96.809 E0.00245
G1 X61.648 Y97.088 E0.02390
G1 X61.612 Y97.052 E0.00245
G1 X61.205 Y97.332 E0.02390
G1 X61.169 Y97.296 E0.00245
G1 X60.762 Y97.575 E0.02390
G1 X60.726 Y97.539 E0.00245
G1 X60.334 Y97.833 E0.02373
G1 X60.299 Y97.798 E0.00239
G1 X59.936 Y98.122 E0.02353
G1 X59.902 Y98.087 E0.00239
G1 X59.539 Y98.411 E0.02353
G1 X59.504 Y98.376 E0.00239
G1 X59.141 Y98.700 E0.02353
G1 X59.107 Y98.665 E0.00239
G1 X58.744 Y98.988 E0.02353
G1 X58.709 Y98.953 E0.00239
G1 X58.347 Y99.277 E0.02353
G1 X58.312 Y99.242 E0.00239
G1 X57.968 Y99.585 E0.02349
G1 X57.934 Y99.550 E0.00236
G1 X57.580 Y99.883 E0.02351
G1 X57.614 Y99.917 E0.00236
G1 X57.260 Y100.250 E0.02351
G1 X57.226 Y100.215 E0.00236
G1 X56.872 Y100.547 E0.02351
G1 X56.906 Y100.582 E0.00236
G1 X56.553 Y100.914 E0.02351
G1 X56.518 Y100.880 E0.00236
G1 X56.164 Y101.212 E0.02351
G1 X56.199 Y101.247 E0.00236
G1 X55.866 Y101.600 E0.02350
G1 X55.831 Y101.565 E0.00237
G1 X55.520 Y101.941 E0.02360
G1 X55.555 Y101.975 E0.00237
G1 X55.210 Y102.316 E0.02349
G1 X55.244 Y102.351 E0.00237
G1 X54.899 Y102.692 E0.02349
G1 X54.934 Y102.726 E0.00237
G1 X54.588 Y103.067 E0.02349
