; generated by Slic3r 0.9.10b on 2014-01-18 at 14:02:32

; layer_height = 0.24
; perimeters = 2
; top_solid_layers = 4
; bottom_solid_layers = 0
; fill_density = 0.4
; perimeter_speed = 20
; infill_speed = 20
; travel_speed = 60
; nozzle_diameter = 0.5
; filament_diameter = 1.75
; extrusion_multiplier = 1
; perimeters extrusion width = 0.85mm
; infill extrusion width = 0.87mm
; solid infill extrusion width = 0.85mm
; top infill extrusion width = 0.85mm
; first layer extrusion width = 0.48mm

G21 ; set units to millimeters
M107
M104 S205 ; set temperature
G21 ; set units to millimeters
G90 ; use absolute coordinates
M83 ; use relative distances for extrusion
M140 S65; Set bed temperature
G1 Z5 F200 ; lift nozzle
G1 X2 Y50 F2000; Go to wait for warm position
M116; Wait for all temperatures
G10 P0 S205 R0 ; Set extruder temperature
T0; Select extruder
M116; Wait for all temperatures
M109 S205 ; wait for temperature to be reached
G90 ; use absolute coordinates
M83 ; use relative distances for extrusion
G1 F1800.000 E-4.00000
G1 Z0.240 F3600.000
G1 X76.530 Y77.412
G1 F1800.000 E4.00000
G1 X78.920 Y75.162 F600.000 E0.15862
G1 X79.560 Y74.632 E0.04015
G1 X82.210 Y72.712 E0.15813
G1 X82.880 Y72.282 E0.03847
G1 X85.750 Y70.702 E0.15831
G1 X86.490 Y70.352 E0.03956
G1 X89.540 Y69.142 E0.15856
G1 X90.330 Y68.912 E0.03976
G1 X90.330 Y68.892 E0.00097
G1 X93.490 Y68.082 E0.15764
G1 X94.290 Y67.932 E0.03933
G1 X97.550 Y67.522 E0.15877
G1 X98.360 Y67.472 E0.03922
G1 X101.630 Y67.472 E0.15802
G1 X102.440 Y67.522 E0.03922
G1 X105.700 Y67.932 E0.15877
G1 X106.500 Y68.082 E0.03933
G1 X109.670 Y68.892 E0.15811
G1 X110.450 Y69.142 E0.03958
G1 X113.500 Y70.352 E0.15856
G1 X114.240 Y70.702 E0.03956
G1 X117.110 Y72.282 E0.15831
G1 X117.790 Y72.722 E0.03914
G1 X120.430 Y74.632 E0.15746
G1 X121.070 Y75.162 E0.04015
G1 X123.460 Y77.412 E0.15862
G1 X124.010 Y77.992 E0.03863
G1 X126.100 Y80.512 E0.15820
G1 X126.580 Y81.172 E0.03944
G1 X128.340 Y83.942 E0.15859
G1 X128.740 Y84.672 E0.04022
G1 X130.130 Y87.642 E0.15846
G1 X130.430 Y88.392 E0.03903
G1 X131.440 Y91.502 E0.15801
G1 X131.640 Y92.272 E0.03844
G1 X132.260 Y95.492 E0.15846
G1 X132.360 Y96.322 E0.04040
G1 X132.560 Y99.592 E0.15831
G1 X132.560 Y100.392 E0.03866
G1 X132.360 Y103.662 E0.15831
G1 X132.260 Y104.492 E0.04040
G1 X131.640 Y107.712 E0.15846
G1 X131.440 Y108.482 E0.03844
G1 X130.430 Y111.602 E0.15847
G1 X130.130 Y112.352 E0.03903
G1 X128.740 Y115.322 E0.15846
G1 X128.340 Y116.062 E0.04065
G1 X126.580 Y118.822 E0.15818
G1 X126.110 Y119.462 E0.03837
G1 X124.020 Y121.992 E0.15858
G1 X123.450 Y122.592 E0.03999
G1 X121.060 Y124.832 E0.15829
G1 X120.440 Y125.342 E0.03879
G1 X117.800 Y127.262 E0.15774
G1 X117.110 Y127.712 E0.03981
G1 X114.240 Y129.292 E0.15831
G1 X113.500 Y129.642 E0.03956
G1 X110.450 Y130.852 E0.15856
G1 X109.670 Y131.102 E0.03958
G1 X106.500 Y131.912 E0.15811
G1 X105.700 Y132.062 E0.03933
G1 X102.440 Y132.471 E0.15877
G1 X101.630 Y132.522 E0.03922
G1 X98.360 Y132.522 E0.15802
G1 X97.550 Y132.471 E0.03922
G1 X94.290 Y132.062 E0.15877
G1 X93.490 Y131.912 E0.03933
G1 X90.320 Y131.102 E0.15811
G1 X89.540 Y130.852 E0.03958
G1 X86.490 Y129.642 E0.15856
G1 X85.750 Y129.292 E0.03956
G1 X82.880 Y127.712 E0.15831
G1 X82.190 Y127.272 E0.03955
G1 X79.540 Y125.342 E0.15842
G1 X78.930 Y124.832 E0.03842
G1 X76.540 Y122.592 E0.15829
G1 X75.970 Y121.992 E0.03999
G1 X73.880 Y119.462 E0.15858
G1 X73.410 Y118.822 E0.03837
G1 X71.650 Y116.062 E0.15818
G1 X71.250 Y115.322 E0.04065
G1 X69.860 Y112.352 E0.15846
G1 X69.570 Y111.612 E0.03841
G1 X68.550 Y108.492 E0.15862
G1 X68.340 Y107.692 E0.03997
G1 X67.730 Y104.472 E0.15837
G1 X67.630 Y103.662 E0.03944
G1 X67.430 Y100.392 E0.15831
G1 X67.430 Y99.592 E0.03866
G1 X67.630 Y96.322 E0.15831
G1 X67.730 Y95.512 E0.03944
G1 X68.340 Y92.292 E0.15837
G1 X68.550 Y91.482 E0.04044
G1 X69.570 Y88.372 E0.15816
G1 X69.860 Y87.642 E0.03796
G1 X71.250 Y84.672 E0.15846
G1 X71.650 Y83.942 E0.04022
G1 X73.410 Y81.172 E0.15859
G1 X73.890 Y80.512 E0.03944
G1 X75.980 Y77.992 E0.15820
G1 X76.480 Y77.464 E0.03511
G1 F1800.000 E-4.00000
G1 X81.151 Y82.299 F3600.000
G1 F1800.000 E4.00000
G1 X83.518 Y80.077 F420.000 E0.15691
G1 X86.145 Y78.168 E0.15692
G1 X88.990 Y76.604 E0.15692
G1 X92.010 Y75.408 E0.15691
G1 X95.155 Y74.601 E0.15691
G1 X98.376 Y74.194 E0.15691
G1 X101.624 Y74.194 E0.15691
G1 X104.845 Y74.601 E0.15691
G1 X107.990 Y75.408 E0.15691
G1 X111.009 Y76.604 E0.15691
G1 X113.855 Y78.168 E0.15692
G1 X116.482 Y80.077 E0.15692
G1 X118.849 Y82.299 E0.15691
G1 X120.919 Y84.801 E0.15691
G1 X122.659 Y87.543 E0.15691
G1 X124.042 Y90.481 E0.15692
G1 X125.045 Y93.570 E0.15691
G1 X125.653 Y96.759 E0.15691
G1 X125.857 Y100.000 E0.15691
G1 X125.653 Y103.241 E0.15691
G1 X125.045 Y106.430 E0.15691
G1 X124.042 Y109.519 E0.15691
G1 X122.659 Y112.457 E0.15692
G1 X120.919 Y115.199 E0.15691
G1 X118.849 Y117.701 E0.15691
G1 X116.482 Y119.923 E0.15691
G1 X113.855 Y121.832 E0.15691
G1 X111.009 Y123.396 E0.15692
G1 X107.990 Y124.592 E0.15691
G1 X104.845 Y125.399 E0.15691
G1 X101.624 Y125.806 E0.15691
G1 X98.376 Y125.806 E0.15691
G1 X95.155 Y125.399 E0.15691
G1 X92.010 Y124.592 E0.15691
G1 X88.991 Y123.396 E0.15691
G1 X86.145 Y121.832 E0.15692
G1 X83.518 Y119.923 E0.15692
G1 X81.151 Y117.701 E0.15691
G1 X79.081 Y115.199 E0.15691
G1 X77.341 Y112.457 E0.15691
G1 X75.958 Y109.519 E0.15692
G1 X74.955 Y106.430 E0.15691
G1 X74.347 Y103.241 E0.15691
G1 X74.143 Y100.000 E0.15691
G1 X74.347 Y96.759 E0.15691
G1 X74.955 Y93.570 E0.15691
G1 X75.958 Y90.481 E0.15691
G1 X77.341 Y87.543 E0.15692
G1 X79.081 Y84.801 E0.15691
G1 X81.104 Y82.355 E0.15340
G1 X81.620 Y82.420 F3600.000
G1 X81.505 Y82.632
G1 X83.827 Y80.450 F600.000 E0.15397
G1 X86.405 Y78.578 E0.15397
G1 X89.197 Y77.043 E0.15397
G1 X92.160 Y75.870 E0.15397
G1 X95.246 Y75.077 E0.15397
G1 X98.407 Y74.678 E0.15397
G1 X101.593 Y74.678 E0.15397
G1 X104.754 Y75.077 E0.15397
G1 X107.840 Y75.870 E0.15397
G1 X110.803 Y77.043 E0.15397
G1 X113.595 Y78.578 E0.15397
G1 X116.173 Y80.450 E0.15397
G1 X118.495 Y82.632 E0.15397
G1 X120.526 Y85.087 E0.15397
G1 X122.234 Y87.777 E0.15397
G1 X123.590 Y90.660 E0.15397
G1 X124.575 Y93.690 E0.15397
G1 X125.172 Y96.820 E0.15397
G1 X125.372 Y100.000 E0.15397
G1 X125.172 Y103.180 E0.15397
G1 X124.575 Y106.310 E0.15397
G1 X123.590 Y109.340 E0.15397
G1 X122.234 Y112.223 E0.15397
G1 X120.526 Y114.913 E0.15397
G1 X118.495 Y117.368 E0.15397
G1 X116.173 Y119.550 E0.15397
G1 X113.595 Y121.422 E0.15397
G1 X110.803 Y122.957 E0.15397
G1 X107.840 Y124.130 E0.15397
G1 X104.754 Y124.923 E0.15397
G1 X101.593 Y125.322 E0.15397
G1 X98.407 Y125.322 E0.15397
G1 X95.246 Y124.923 E0.15397
G1 X92.160 Y124.130 E0.15397
G1 X89.197 Y122.957 E0.15397
G1 X86.405 Y121.422 E0.15397
G1 X83.827 Y119.550 E0.15397
G1 X81.505 Y117.368 E0.15397
G1 X79.474 Y114.913 E0.15397
G1 X77.766 Y112.223 E0.15397
G1 X76.410 Y109.340 E0.15397
G1 X75.425 Y106.310 E0.15397
G1 X74.828 Y103.180 E0.15397
G1 X74.628 Y100.000 E0.15397
G1 X74.828 Y96.820 E0.15397
G1 X75.425 Y93.690 E0.15397
G1 X76.410 Y90.660 E0.15397
G1 X77.766 Y87.777 E0.15397
G1 X79.474 Y85.087 E0.15397
G1 X81.458 Y82.688 E0.15046
G1 X82.082 Y86.259 F3600.000
G1 X82.985 Y86.326 F420.000 E0.04373
G1 X83.998 Y86.483 E0.04955
G1 X84.834 Y86.695 E0.04167
G1 X85.544 Y86.951 E0.03648
G1 X86.069 Y86.392 E0.03702
G1 X85.769 Y85.699 E0.03646
G1 X85.505 Y84.879 E0.04166
G1 X85.284 Y83.877 E0.04959
G1 X85.162 Y82.981 E0.04369
G1 X86.063 Y82.235 E0.05653
G1 X86.919 Y82.524 E0.04370
G1 X87.862 Y82.928 E0.04956
G1 X88.619 Y83.342 E0.04168
G1 X89.244 Y83.765 E0.03645
G1 X89.890 Y83.355 E0.03699
G1 X89.773 Y82.609 E0.03648
G1 X89.721 Y81.748 E0.04167
G1 X89.757 Y80.724 E0.04952
G1 X89.860 Y79.825 E0.04371
G1 X90.918 Y79.328 E0.05649
G1 X91.677 Y79.820 E0.04375
G1 X92.489 Y80.446 E0.04954
G1 X93.119 Y81.035 E0.04169
G1 X93.619 Y81.601 E0.03646
G1 X94.348 Y81.363 E0.03703
G1 X94.419 Y80.613 E0.03645
G1 X94.583 Y79.766 E0.04164
G1 X94.872 Y78.782 E0.04956
G1 X95.197 Y77.937 E0.04376
G1 X96.345 Y77.718 E0.05648
G1 X96.957 Y78.385 E0.04372
G1 X97.588 Y79.193 E0.04955
G1 X98.052 Y79.920 E0.04167
G1 X98.395 Y80.591 E0.03643
G1 X99.159 Y80.544 E0.03700
G1 X99.416 Y79.834 E0.03649
G1 X99.785 Y79.054 E0.04167
G1 X100.310 Y78.173 E0.04957
G1 X100.834 Y77.436 E0.04369
G1 X102.000 Y77.509 E0.05648
G1 X102.428 Y78.306 E0.04374
G1 X102.838 Y79.246 E0.04956
G1 X103.106 Y80.066 E0.04165
G1 X103.272 Y80.802 E0.03648
G1 X104.025 Y80.945 E0.03707
G1 X104.450 Y80.322 E0.03643
G1 X105.001 Y79.659 E0.04169
G1 X105.728 Y78.936 E0.04953
G1 X106.419 Y78.352 E0.04373
G1 X107.531 Y78.714 E0.05649
G1 X107.747 Y79.592 E0.04371
G1 X107.911 Y80.604 E0.04956
G1 X107.966 Y81.465 E0.04167
G1 X107.944 Y82.220 E0.03649
G1 X108.637 Y82.546 E0.03701
G1 X109.204 Y82.047 E0.03652
G1 X109.902 Y81.542 E0.04163
G1 X110.787 Y81.022 E0.04957
G1 X111.601 Y80.629 E0.04369
G1 X112.589 Y81.255 E0.05651
G1 X112.579 Y82.159 E0.04372
G1 X112.486 Y83.181 E0.04958
G1 X112.326 Y84.028 E0.04166
G1 X112.116 Y84.753 E0.03647
G1 X112.707 Y85.242 E0.03704
G1 X113.379 Y84.900 E0.03643
G1 X114.182 Y84.584 E0.04171
G1 X115.168 Y84.301 E0.04955
G1 X116.054 Y84.123 E0.04368
G1 X116.854 Y84.975 E0.05649
G1 X116.621 Y85.848 E0.04368
G1 X116.276 Y86.814 E0.04958
G1 X115.910 Y87.595 E0.04166
G1 X115.527 Y88.245 E0.03646
G1 X115.977 Y88.865 E0.03702
G1 X116.714 Y88.701 E0.03645
G1 X117.570 Y88.596 E0.04171
G1 X118.595 Y88.566 E0.04953
G1 X119.498 Y88.613 E0.04372
G1 X120.062 Y89.639 E0.05655
G1 X119.618 Y90.426 E0.04371
G1 X119.044 Y91.276 E0.04955
G1 X118.496 Y91.941 E0.04166
G1 X117.963 Y92.476 E0.03647
G1 X118.245 Y93.189 E0.03704
G1 X118.999 Y93.213 E0.03645
G1 X119.854 Y93.324 E0.04169
G1 X120.854 Y93.549 E0.04953
G1 X121.718 Y93.820 E0.04374
G1 X122.009 Y94.953 E0.05651
G1 X121.381 Y95.606 E0.04374
G1 X120.615 Y96.286 E0.04951
G1 X119.918 Y96.795 E0.04170
G1 X119.270 Y97.179 E0.03642
G1 X119.366 Y97.940 E0.03705
G1 X120.090 Y98.151 E0.03646
G1 X120.891 Y98.470 E0.04167
G1 X121.803 Y98.939 E0.04955
G1 X122.572 Y99.416 E0.04373
G1 X122.572 Y100.584 E0.05649
G1 X121.803 Y101.061 E0.04373
G1 X120.891 Y101.530 E0.04955
G1 X120.090 Y101.849 E0.04167
G1 X119.365 Y102.060 E0.03647
G1 X119.269 Y102.820 E0.03703
G1 X119.918 Y103.205 E0.03647
G1 X120.615 Y103.714 E0.04170
G1 X121.381 Y104.394 E0.04951
G1 X122.009 Y105.047 E0.04374
G1 X121.718 Y106.179 E0.05651
G1 X120.854 Y106.451 E0.04374
G1 X119.854 Y106.676 E0.04953
G1 X118.999 Y106.787 E0.04169
G1 X118.246 Y106.811 E0.03640
G1 X117.963 Y107.524 E0.03707
G1 X118.496 Y108.059 E0.03645
G1 X119.044 Y108.724 E0.04166
G1 X119.618 Y109.574 E0.04955
G1 X120.062 Y110.361 E0.04371
G1 X119.498 Y111.387 E0.05655
G1 X118.595 Y111.434 E0.04372
G1 X117.570 Y111.404 E0.04953
G1 X116.714 Y111.299 E0.04171
G1 X115.977 Y111.135 E0.03646
G1 X115.527 Y111.754 E0.03700
G1 X115.910 Y112.405 E0.03650
G1 X116.276 Y113.186 E0.04166
G1 X116.621 Y114.152 E0.04958
G1 X116.854 Y115.025 E0.04368
G1 X116.054 Y115.877 E0.05649
G1 X115.168 Y115.699 E0.04368
G1 X114.182 Y115.416 E0.04955
G1 X113.379 Y115.100 E0.04171
G1 X112.707 Y114.758 E0.03643
G1 X112.116 Y115.247 E0.03704
G1 X112.326 Y115.972 E0.03647
G1 X112.486 Y116.819 E0.04166
G1 X112.579 Y117.841 E0.04958
G1 X112.589 Y118.745 E0.04372
G1 X111.601 Y119.371 E0.05651
G1 X110.787 Y118.978 E0.04369
G1 X109.902 Y118.458 E0.04957
G1 X109.204 Y117.953 E0.04163
G1 X108.638 Y117.455 E0.03646
G1 X107.944 Y117.781 E0.03703
G1 X107.966 Y118.535 E0.03648
G1 X107.911 Y119.396 E0.04167
G1 X107.747 Y120.408 E0.04956
G1 X107.531 Y121.286 E0.04371
G1 X106.419 Y121.648 E0.05649
G1 X105.728 Y121.064 E0.04373
G1 X105.001 Y120.341 E0.04953
G1 X104.450 Y119.678 E0.04169
G1 X104.025 Y119.054 E0.03647
G1 X103.272 Y119.198 E0.03705
G1 X103.106 Y119.934 E0.03649
G1 X102.838 Y120.754 E0.04165
G1 X102.428 Y121.694 E0.04956
G1 X102.000 Y122.491 E0.04374
G1 X100.834 Y122.564 E0.05648
G1 X100.310 Y121.827 E0.04369
G1 X99.785 Y120.946 E0.04957
G1 X99.416 Y120.166 E0.04167
G1 X99.159 Y119.456 E0.03650
G1 X98.395 Y119.408 E0.03698
G1 X98.052 Y120.080 E0.03648
G1 X97.588 Y120.807 E0.04167
G1 X96.957 Y121.615 E0.04955
G1 X96.345 Y122.282 E0.04372
G1 X95.197 Y122.063 E0.05648
G1 X94.872 Y121.218 E0.04376
G1 X94.583 Y120.234 E0.04956
G1 X94.419 Y119.387 E0.04164
G1 X94.348 Y118.637 E0.03645
G1 X93.619 Y118.399 E0.03703
G1 X93.119 Y118.965 E0.03646
G1 X92.489 Y119.554 E0.04169
G1 X91.677 Y120.180 E0.04954
G1 X90.918 Y120.672 E0.04375
G1 X89.860 Y120.175 E0.05649
G1 X89.757 Y119.276 E0.04371
G1 X89.721 Y118.252 E0.04952
G1 X89.773 Y117.391 E0.04167
G1 X89.890 Y116.644 E0.03652
G1 X89.244 Y116.235 E0.03698
G1 X88.619 Y116.658 E0.03646
G1 X87.862 Y117.072 E0.04168
G1 X86.919 Y117.476 E0.04956
G1 X86.063 Y117.765 E0.04370
G1 X85.162 Y117.019 E0.05653
G1 X85.284 Y116.123 E0.04369
G1 X85.505 Y115.121 E0.04959
G1 X85.769 Y114.301 E0.04166
G1 X86.069 Y113.608 E0.03646
G1 X85.544 Y113.049 E0.03702
G1 X84.834 Y113.305 E0.03648
G1 X83.998 Y113.517 E0.04167
G1 X82.985 Y113.674 E0.04955
G1 X82.082 Y113.741 E0.04373
G1 X81.395 Y112.795 E0.05647
G1 X81.737 Y111.957 E0.04376
G1 X82.199 Y111.042 E0.04951
G1 X82.661 Y110.313 E0.04170
G1 X83.122 Y109.716 E0.03643
G1 X82.752 Y109.044 E0.03708
G1 X82.002 Y109.115 E0.03639
G1 X81.139 Y109.113 E0.04170
G1 X80.119 Y109.013 E0.04956
G1 X79.227 Y108.852 E0.04375
G1 X78.798 Y107.766 E0.05643
G1 X79.337 Y107.040 E0.04370
G1 X80.013 Y106.269 E0.04955
G1 X80.640 Y105.676 E0.04170
G1 X81.236 Y105.213 E0.03646
G1 X81.045 Y104.471 E0.03707
G1 X80.300 Y104.352 E0.03646
G1 X79.465 Y104.135 E0.04168
G1 X78.502 Y103.786 E0.04952
G1 X77.679 Y103.409 E0.04373
G1 X77.532 Y102.249 E0.05652
G1 X78.235 Y101.679 E0.04373
G1 X79.082 Y101.101 E0.04957
G1 X79.837 Y100.684 E0.04165
G1 X80.529 Y100.383 E0.03646
G1 X80.529 Y99.617 E0.03705
G1 X79.837 Y99.316 E0.03646
G1 X79.082 Y98.899 E0.04165
G1 X78.235 Y98.321 E0.04957
G1 X77.532 Y97.751 E0.04373
G1 X77.679 Y96.591 E0.05652
G1 X78.502 Y96.214 E0.04373
G1 X79.465 Y95.865 E0.04952
G1 X80.300 Y95.648 E0.04168
G1 X81.045 Y95.529 E0.03646
G1 X81.236 Y94.787 E0.03707
G1 X80.640 Y94.324 E0.03646
G1 X80.013 Y93.731 E0.04170
G1 X79.337 Y92.960 E0.04955
G1 X78.798 Y92.234 E0.04370
G1 X79.227 Y91.148 E0.05643
G1 X80.119 Y90.987 E0.04375
G1 X81.139 Y90.887 E0.04956
G1 X82.002 Y90.885 E0.04170
G1 X82.752 Y90.956 E0.03639
G1 X83.122 Y90.284 E0.03708
G1 X82.661 Y89.687 E0.03643
G1 X82.199 Y88.958 E0.04170
G1 X81.737 Y88.043 E0.04951
G1 X81.395 Y87.205 E0.04376
G1 X82.039 Y86.318 E0.05296
G1 X82.425 Y86.601 F3600.000
G1 X82.645 Y85.808
G1 X83.408 Y85.891 F600.000 E0.03709
G1 X84.096 Y86.008 E0.03372
G1 X84.703 Y86.154 E0.03018
G1 X85.531 Y86.412 E0.04190
G1 X85.220 Y85.602 E0.04190
G1 X84.953 Y84.676 E0.04658
G1 X84.807 Y83.960 E0.03532
G1 X84.649 Y82.777 E0.05768
G1 X85.958 Y81.693 E0.08215
G1 X87.090 Y82.071 E0.05768
G1 X87.767 Y82.349 E0.03536
G1 X88.627 Y82.785 E0.04656
G1 X89.363 Y83.239 E0.04182
G1 X89.266 Y82.380 E0.04179
G1 X89.238 Y81.415 E0.04665
G1 X89.274 Y80.686 E0.03526
G1 X89.414 Y79.500 E0.05770
G1 X90.951 Y78.777 E0.08209
G1 X91.956 Y79.424 E0.05777
G1 X92.540 Y79.860 E0.03523
G1 X93.265 Y80.496 E0.04659
G1 X93.866 Y81.121 E0.04189
G1 X93.984 Y80.263 E0.04182
G1 X94.197 Y79.322 E0.04662
G1 X94.414 Y78.625 E0.03527
G1 X94.846 Y77.511 E0.05776
G1 X96.514 Y77.193 E0.08209
G1 X97.325 Y78.070 E0.05770
G1 X97.784 Y78.638 E0.03531
G1 X98.327 Y79.434 E0.04655
G1 X98.753 Y80.188 E0.04182
G1 X99.082 Y79.388 E0.04178
G1 X99.522 Y78.529 E0.04662
G1 X99.905 Y77.906 E0.03534
G1 X100.600 Y76.936 E0.05765
G1 X102.295 Y77.042 E0.08210
G1 X102.863 Y78.093 E0.05773
G1 X103.165 Y78.758 E0.03530
G1 X103.494 Y79.665 E0.04661
G1 X103.720 Y80.499 E0.04178
G1 X104.237 Y79.806 E0.04177
G1 X104.877 Y79.085 E0.04659
G1 X105.402 Y78.578 E0.03525
G1 X106.317 Y77.809 E0.05775
G1 X107.932 Y78.335 E0.08207
G1 X108.221 Y79.494 E0.05773
G1 X108.349 Y80.212 E0.03526
G1 X108.442 Y81.174 E0.04667
G1 X108.453 Y82.036 E0.04170
G1 X109.126 Y81.495 E0.04178
G1 X109.924 Y80.954 E0.04656
G1 X110.560 Y80.594 E0.03532
G1 X111.637 Y80.078 E0.05769
G1 X113.072 Y80.988 E0.08213
G1 X113.063 Y82.181 E0.05769
