; generated by Slic3r 0.9.10b on 2014-01-20 at 11:49:15

; layer_height = 0.24
; perimeters = 2
; top_solid_layers = 4
; bottom_solid_layers = 0
; fill_density = .5
; perimeter_speed = 20
; infill_speed = 20
; travel_speed = 60
; nozzle_diameter = 0.5
; filament_diameter = 1.75
; extrusion_multiplier = 1
; perimeters extrusion width = 0.85mm
; infill extrusion width = 0.87mm
; solid infill extrusion width = 0.85mm
; top infill extrusion width = 0.85mm
; first layer extrusion width = 0.48mm

G21 ; set units to millimeters
M107
G21 ; set units to millimeters
G90 ; use absolute coordinates
M83 ; use relative distances for extrusion
M140 S65; Set bed temperature
G1 Z5 F200 ; lift nozzle
G1 X2 Y50 F2000; Go to wait for warm position
M116; Wait for all temperatures
G10 P0 S205 R0 ; Set extruder temperature
T0; Select extruder
M116; Wait for all temperatures
G90 ; use absolute coordinates
M83 ; use relative distances for extrusion
G1 F1800.000 E-4.00000
G1 Z0.240 F3600.000
G1 X80.340 Y79.370
G1 F1800.000 E4.00000
G1 X81.670 Y78.180 F600.000 E0.08624
G1 X82.010 Y77.900 E0.02128
G1 X83.100 Y77.060 E0.06650
G1 X84.570 Y76.050 E0.08619
G1 X86.440 Y74.950 E0.10484
G1 X88.050 Y74.140 E0.08709
G1 X89.320 Y73.590 E0.06688
G1 X91.000 Y72.970 E0.08653
G1 X91.410 Y72.840 E0.02078
G1 X93.070 Y72.370 E0.08337
G1 X94.420 Y72.060 E0.06693
G1 X94.890 Y71.970 E0.02312
G1 X96.630 Y71.710 E0.08502
G1 X98.000 Y71.580 E0.06650
G1 X99.700 Y71.520 E0.08220
G1 X100.180 Y71.520 E0.02319
G1 X101.990 Y71.580 E0.08751
G1 X103.360 Y71.710 E0.06650
G1 X105.100 Y71.970 E0.08502
G1 X105.570 Y72.060 E0.02312
G1 X106.920 Y72.370 E0.06693
G1 X108.580 Y72.840 E0.08337
G1 X108.990 Y72.970 E0.02078
G1 X110.670 Y73.590 E0.08653
G1 X112.320 Y74.320 E0.08719
G1 X113.880 Y75.130 E0.08494
G1 X115.420 Y76.050 E0.08669
G1 X116.570 Y76.830 E0.06715
G1 X117.980 Y77.900 E0.08553
G1 X118.340 Y78.200 E0.02264
G1 X119.370 Y79.120 E0.06674
G1 X120.620 Y80.340 E0.08440
G1 X121.810 Y81.670 E0.08624
G1 X122.090 Y82.010 E0.02128
G1 X122.930 Y83.100 E0.06650
G1 X123.940 Y84.570 E0.08619
G1 X125.040 Y86.440 E0.10484
G1 X125.850 Y88.040 E0.08666
G1 X126.390 Y89.280 E0.06536
G1 X127.020 Y91.000 E0.08852
G1 X127.150 Y91.410 E0.02078
G1 X127.620 Y93.070 E0.08337
G1 X127.930 Y94.420 E0.06693
G1 X128.020 Y94.890 E0.02312
G1 X128.280 Y96.630 E0.08502
G1 X128.410 Y98.000 E0.06650
G1 X128.470 Y100.180 E0.10538
G1 X128.410 Y101.990 E0.08751
G1 X128.280 Y103.360 E0.06650
G1 X128.020 Y105.100 E0.08502
G1 X127.930 Y105.570 E0.02312
G1 X127.620 Y106.920 E0.06693
G1 X127.150 Y108.580 E0.08337
G1 X127.020 Y108.990 E0.02078
G1 X126.390 Y110.710 E0.08852
G1 X125.850 Y111.950 E0.06536
G1 X124.860 Y113.880 E0.10482
G1 X123.940 Y115.420 E0.08669
G1 X123.160 Y116.570 E0.06715
G1 X122.090 Y117.980 E0.08553
G1 X121.790 Y118.340 E0.02264
G1 X120.620 Y119.640 E0.08452
G1 X119.640 Y120.620 E0.06697
G1 X118.340 Y121.790 E0.08452
G1 X117.980 Y122.090 E0.02264
G1 X116.890 Y122.930 E0.06650
G1 X115.420 Y123.940 E0.08619
G1 X113.880 Y124.860 E0.08669
G1 X112.320 Y125.670 E0.08494
G1 X111.940 Y125.850 E0.02032
G1 X110.290 Y126.550 E0.08661
G1 X108.990 Y127.020 E0.06680
G1 X107.260 Y127.530 E0.08716
G1 X105.570 Y127.930 E0.08392
G1 X105.100 Y128.020 E0.02312
G1 X103.360 Y128.280 E0.08502
G1 X101.990 Y128.410 E0.06650
G1 X100.180 Y128.470 E0.08751
G1 X98.420 Y128.430 E0.08507
G1 X98.000 Y128.410 E0.02032
G1 X96.260 Y128.230 E0.08453
G1 X94.890 Y128.020 E0.06698
G1 X94.420 Y127.930 E0.02312
G1 X93.070 Y127.620 E0.06693
G1 X91.000 Y127.020 E0.10415
G1 X89.280 Y126.390 E0.08852
G1 X88.040 Y125.850 E0.06536
G1 X86.440 Y125.040 E0.08666
G1 X84.920 Y124.160 E0.08487
G1 X84.570 Y123.940 E0.01998
G1 X83.100 Y122.930 E0.08619
G1 X81.670 Y121.810 E0.08777
G1 X80.630 Y120.890 E0.06710
G1 X80.270 Y120.550 E0.02393
G1 X79.120 Y119.370 E0.07962
G1 X77.900 Y117.980 E0.08937
G1 X77.060 Y116.890 E0.06650
G1 X76.050 Y115.420 E0.08619
G1 X75.830 Y115.070 E0.01998
G1 X74.950 Y113.550 E0.08487
G1 X74.140 Y111.940 E0.08709
G1 X73.590 Y110.670 E0.06688
G1 X72.970 Y108.990 E0.08653
G1 X72.460 Y107.260 E0.08716
G1 X72.060 Y105.570 E0.08392
G1 X71.970 Y105.100 E0.02312
G1 X71.710 Y103.360 E0.08502
G1 X71.580 Y101.990 E0.06650
G1 X71.560 Y101.570 E0.02032
G1 X71.520 Y100.180 E0.06720
G1 X71.560 Y98.420 E0.08507
G1 X71.580 Y98.000 E0.02032
G1 X71.760 Y96.260 E0.08453
G1 X71.970 Y94.890 E0.06698
G1 X72.060 Y94.420 E0.02312
G1 X72.370 Y93.070 E0.06693
G1 X72.970 Y91.000 E0.10415
G1 X73.590 Y89.320 E0.08653
G1 X74.140 Y88.050 E0.06688
G1 X75.130 Y86.110 E0.10525
G1 X76.050 Y84.570 E0.08669
G1 X76.830 Y83.420 E0.06715
G1 X77.900 Y82.010 E0.08553
G1 X78.180 Y81.670 E0.02128
G1 X79.370 Y80.340 E0.08624
G1 X80.289 Y79.421 E0.06278
G1 F1800.000 E-4.00000
G1 X85.088 Y84.157 F3600.000
G1 F1800.000 E4.00000
G1 X86.131 Y83.235 F420.000 E0.06728
G1 X87.211 Y82.398 E0.06605
G1 X88.342 Y81.629 E0.06605
G1 X89.518 Y80.934 E0.06605
G1 X90.713 Y80.325 E0.06482
G1 X91.990 Y79.770 E0.06728
G1 X93.276 Y79.307 E0.06605
G1 X94.589 Y78.926 E0.06605
G1 X95.923 Y78.628 E0.06605
G1 X97.273 Y78.414 E0.06605
G1 X98.608 Y78.288 E0.06482
G1 X100.000 Y78.242 E0.06728
G1 X101.366 Y78.285 E0.06605
G1 X102.727 Y78.414 E0.06605
G1 X104.077 Y78.628 E0.06605
G1 X105.411 Y78.926 E0.06605
G1 X106.724 Y79.307 E0.06605
G1 X108.010 Y79.770 E0.06605
G1 X109.264 Y80.313 E0.06605
G1 X110.482 Y80.934 E0.06605
G1 X111.658 Y81.629 E0.06605
G1 X112.789 Y82.398 E0.06605
G1 X113.869 Y83.235 E0.06605
G1 X114.875 Y84.122 E0.06482
G1 X115.861 Y85.106 E0.06729
G1 X116.765 Y86.131 E0.06605
G1 X117.602 Y87.211 E0.06605
G1 X118.371 Y88.342 E0.06605
G1 X119.066 Y89.518 E0.06605
G1 X119.675 Y90.713 E0.06482
G1 X120.230 Y91.990 E0.06728
G1 X120.693 Y93.276 E0.06605
G1 X121.074 Y94.589 E0.06605
G1 X121.372 Y95.923 E0.06605
G1 X121.586 Y97.273 E0.06605
G1 X121.715 Y98.634 E0.06605
G1 X121.758 Y100.000 E0.06605
G1 X121.715 Y101.366 E0.06605
G1 X121.586 Y102.727 E0.06605
G1 X121.372 Y104.077 E0.06605
G1 X121.074 Y105.411 E0.06605
G1 X120.693 Y106.724 E0.06605
G1 X120.230 Y108.010 E0.06605
G1 X119.687 Y109.264 E0.06605
G1 X119.066 Y110.482 E0.06605
G1 X118.371 Y111.658 E0.06605
G1 X117.602 Y112.789 E0.06605
G1 X116.765 Y113.869 E0.06605
G1 X115.861 Y114.894 E0.06605
G1 X114.894 Y115.861 E0.06605
G1 X113.869 Y116.765 E0.06605
G1 X112.789 Y117.602 E0.06605
G1 X111.658 Y118.371 E0.06605
G1 X110.482 Y119.066 E0.06605
G1 X109.264 Y119.687 E0.06605
G1 X107.986 Y120.239 E0.06728
G1 X106.723 Y120.693 E0.06481
G1 X105.411 Y121.074 E0.06605
G1 X104.077 Y121.372 E0.06605
G1 X102.727 Y121.586 E0.06605
G1 X101.366 Y121.715 E0.06605
G1 X100.000 Y121.758 E0.06605
G1 X98.634 Y121.715 E0.06605
G1 X97.273 Y121.586 E0.06605
G1 X95.923 Y121.372 E0.06605
G1 X94.589 Y121.074 E0.06605
G1 X93.276 Y120.693 E0.06605
G1 X91.990 Y120.230 E0.06605
G1 X90.736 Y119.687 E0.06605
G1 X89.518 Y119.066 E0.06605
G1 X88.342 Y118.371 E0.06605
G1 X87.211 Y117.602 E0.06605
G1 X86.131 Y116.765 E0.06605
G1 X85.106 Y115.861 E0.06605
G1 X84.139 Y114.894 E0.06605
G1 X83.235 Y113.869 E0.06605
G1 X82.398 Y112.789 E0.06605
G1 X81.629 Y111.658 E0.06605
G1 X80.934 Y110.482 E0.06605
G1 X80.313 Y109.264 E0.06605
G1 X79.770 Y108.010 E0.06605
G1 X79.307 Y106.724 E0.06605
G1 X78.926 Y105.411 E0.06605
G1 X78.628 Y104.077 E0.06605
G1 X78.414 Y102.727 E0.06605
G1 X78.285 Y101.366 E0.06605
G1 X78.242 Y100.000 E0.06605
G1 X78.285 Y98.634 E0.06605
G1 X78.414 Y97.273 E0.06605
G1 X78.628 Y95.923 E0.06605
G1 X78.926 Y94.589 E0.06605
G1 X79.307 Y93.276 E0.06605
G1 X79.770 Y91.990 E0.06605
G1 X80.313 Y90.736 E0.06605
G1 X80.934 Y89.518 E0.06605
G1 X81.629 Y88.342 E0.06605
G1 X82.398 Y87.211 E0.06605
G1 X83.235 Y86.131 E0.06605
G1 X84.139 Y85.106 E0.06605
G1 X85.036 Y84.209 E0.06131
G1 X85.550 Y84.302 F3600.000
G1 X85.438 Y84.493
G1 X86.440 Y83.609 F600.000 E0.06458
G1 X87.488 Y82.796 E0.06408
G1 X88.601 Y82.038 E0.06508
G1 X89.752 Y81.358 E0.06458
G1 X90.942 Y80.751 E0.06458
G1 X92.169 Y80.221 E0.06458
G1 X93.426 Y79.768 E0.06458
G1 X94.700 Y79.398 E0.06408
G1 X96.014 Y79.104 E0.06508
G1 X97.334 Y78.895 E0.06458
G1 X98.664 Y78.769 E0.06458
G1 X100.000 Y78.727 E0.06458
G1 X101.336 Y78.769 E0.06458
G1 X102.666 Y78.895 E0.06458
G1 X103.986 Y79.104 E0.06458
G1 X105.290 Y79.395 E0.06458
G1 X106.574 Y79.768 E0.06458
G1 X107.821 Y80.217 E0.06408
G1 X109.058 Y80.751 E0.06508
G1 X110.248 Y81.358 E0.06458
G1 X111.390 Y82.033 E0.06408
G1 X112.504 Y82.790 E0.06508
G1 X113.560 Y83.609 E0.06458
G1 X114.562 Y84.493 E0.06458
G1 X115.507 Y85.438 E0.06458
G1 X116.391 Y86.440 E0.06458
G1 X117.210 Y87.496 E0.06458
G1 X117.962 Y88.601 E0.06458
G1 X118.642 Y89.752 E0.06458
G1 X119.244 Y90.933 E0.06408
G1 X119.779 Y92.169 E0.06508
G1 X120.232 Y93.426 E0.06458
G1 X120.605 Y94.710 E0.06458
G1 X120.896 Y96.014 E0.06458
G1 X121.105 Y97.334 E0.06458
G1 X121.231 Y98.664 E0.06458
G1 X121.273 Y100.000 E0.06458
G1 X121.231 Y101.336 E0.06458
G1 X121.105 Y102.666 E0.06458
G1 X120.896 Y103.986 E0.06458
G1 X120.605 Y105.290 E0.06458
G1 X120.232 Y106.574 E0.06458
G1 X119.779 Y107.831 E0.06458
G1 X119.249 Y109.058 E0.06458
G1 X118.642 Y110.248 E0.06458
G1 X117.962 Y111.399 E0.06458
G1 X117.210 Y112.504 E0.06458
G1 X116.391 Y113.560 E0.06458
G1 X115.507 Y114.562 E0.06458
G1 X114.562 Y115.507 E0.06458
G1 X113.560 Y116.391 E0.06458
G1 X112.504 Y117.210 E0.06458
G1 X111.399 Y117.962 E0.06458
G1 X110.248 Y118.642 E0.06458
G1 X109.058 Y119.249 E0.06458
G1 X107.821 Y119.783 E0.06508
G1 X106.574 Y120.232 E0.06408
G1 X105.290 Y120.605 E0.06458
G1 X103.986 Y120.896 E0.06458
G1 X102.666 Y121.105 E0.06458
G1 X101.336 Y121.231 E0.06458
G1 X100.000 Y121.273 E0.06458
G1 X98.664 Y121.231 E0.06458
G1 X97.334 Y121.105 E0.06458
G1 X96.014 Y120.896 E0.06458
G1 X94.710 Y120.605 E0.06458
G1 X93.426 Y120.232 E0.06458
G1 X92.169 Y119.779 E0.06458
G1 X90.942 Y119.249 E0.06458
G1 X89.752 Y118.642 E0.06458
G1 X88.601 Y117.962 E0.06458
G1 X87.496 Y117.210 E0.06458
G1 X86.440 Y116.391 E0.06458
G1 X85.438 Y115.507 E0.06458
G1 X84.493 Y114.562 E0.06458
G1 X83.609 Y113.560 E0.06458
G1 X82.790 Y112.504 E0.06458
G1 X82.038 Y111.399 E0.06458
G1 X81.358 Y110.248 E0.06458
G1 X80.751 Y109.058 E0.06458
G1 X80.221 Y107.831 E0.06458
G1 X79.768 Y106.574 E0.06458
G1 X79.395 Y105.290 E0.06458
G1 X79.104 Y103.986 E0.06458
G1 X78.895 Y102.666 E0.06458
G1 X78.769 Y101.336 E0.06458
G1 X78.727 Y100.000 E0.06458
G1 X78.769 Y98.664 E0.06458
G1 X78.895 Y97.334 E0.06458
G1 X79.104 Y96.014 E0.06458
G1 X79.395 Y94.710 E0.06458
G1 X79.768 Y93.426 E0.06458
G1 X80.221 Y92.169 E0.06458
G1 X80.751 Y90.942 E0.06458
G1 X81.358 Y89.752 E0.06458
G1 X82.038 Y88.601 E0.06458
G1 X82.790 Y87.496 E0.06458
G1 X83.609 Y86.440 E0.06458
G1 X84.493 Y85.438 E0.06458
G1 X85.386 Y84.544 E0.06107
G1 X87.855 Y87.066 F3600.000
G1 X88.691 Y86.329 F420.000 E0.05386
G1 X89.571 Y85.646 E0.05386
G1 X90.493 Y85.020 E0.05386
G1 X91.453 Y84.452 E0.05386
G1 X92.446 Y83.946 E0.05386
G1 X93.469 Y83.504 E0.05386
G1 X94.517 Y83.126 E0.05386
G1 X95.588 Y82.815 E0.05386
G1 X96.675 Y82.572 E0.05386
G1 X97.776 Y82.398 E0.05386
G1 X98.886 Y82.293 E0.05386
G1 X100.000 Y82.258 E0.05386
G1 X101.114 Y82.293 E0.05386
G1 X102.224 Y82.398 E0.05386
G1 X103.325 Y82.572 E0.05386
G1 X104.412 Y82.815 E0.05386
G1 X105.483 Y83.126 E0.05386
G1 X106.531 Y83.504 E0.05386
G1 X107.554 Y83.946 E0.05386
G1 X108.547 Y84.452 E0.05386
G1 X109.507 Y85.020 E0.05386
G1 X110.429 Y85.646 E0.05386
G1 X111.309 Y86.329 E0.05386
G1 X112.120 Y87.044 E0.05222
G1 X112.934 Y87.855 E0.05550
G1 X113.671 Y88.691 E0.05386
G1 X114.354 Y89.571 E0.05386
G1 X114.980 Y90.493 E0.05386
G1 X115.548 Y91.453 E0.05386
G1 X116.054 Y92.446 E0.05386
G1 X116.496 Y93.469 E0.05386
G1 X116.862 Y94.485 E0.05222
G1 X117.185 Y95.588 E0.05550
G1 X117.428 Y96.675 E0.05386
G1 X117.602 Y97.776 E0.05386
G1 X117.707 Y98.886 E0.05386
G1 X117.742 Y100.000 E0.05386
G1 X117.707 Y101.114 E0.05386
G1 X117.597 Y102.257 E0.05550
G1 X117.428 Y103.325 E0.05222
G1 X117.185 Y104.412 E0.05386
G1 X116.862 Y105.515 E0.05550
G1 X116.496 Y106.531 E0.05222
G1 X116.054 Y107.554 E0.05386
G1 X115.548 Y108.547 E0.05386
G1 X114.980 Y109.507 E0.05386
G1 X114.354 Y110.429 E0.05386
G1 X113.671 Y111.309 E0.05386
G1 X112.934 Y112.145 E0.05386
G1 X112.145 Y112.934 E0.05386
G1 X111.309 Y113.671 E0.05386
G1 X110.429 Y114.354 E0.05386
G1 X109.507 Y114.980 E0.05386
G1 X108.547 Y115.548 E0.05386
G1 X107.523 Y116.067 E0.05550
G1 X106.531 Y116.496 E0.05222
G1 X105.483 Y116.874 E0.05386
G1 X104.379 Y117.192 E0.05550
G1 X103.325 Y117.428 E0.05222
G1 X102.224 Y117.602 E0.05386
G1 X101.114 Y117.707 E0.05386
G1 X100.000 Y117.742 E0.05386
G1 X98.886 Y117.707 E0.05386
G1 X97.743 Y117.597 E0.05550
G1 X96.675 Y117.428 E0.05222
G1 X95.588 Y117.185 E0.05386
G1 X94.485 Y116.862 E0.05550
G1 X93.469 Y116.496 E0.05222
G1 X92.446 Y116.054 E0.05386
G1 X91.453 Y115.548 E0.05386
G1 X90.493 Y114.980 E0.05386
G1 X89.571 Y114.354 E0.05386
G1 X88.691 Y113.671 E0.05386
G1 X87.855 Y112.934 E0.05386
G1 X87.066 Y112.145 E0.05386
G1 X86.329 Y111.309 E0.05386
G1 X85.646 Y110.429 E0.05386
G1 X85.020 Y109.507 E0.05386
G1 X84.452 Y108.547 E0.05386
G1 X83.946 Y107.554 E0.05386
G1 X83.504 Y106.531 E0.05386
G1 X83.117 Y105.450 E0.05550
G1 X82.815 Y104.412 E0.05222
G1 X82.572 Y103.325 E0.05386
G1 X82.398 Y102.224 E0.05386
G1 X82.293 Y101.114 E0.05386
G1 X82.258 Y100.000 E0.05386
G1 X82.293 Y98.886 E0.05386
G1 X82.398 Y97.776 E0.05386
G1 X82.572 Y96.675 E0.05386
G1 X82.815 Y95.588 E0.05386
G1 X83.117 Y94.550 E0.05222
G1 X83.504 Y93.469 E0.05550
G1 X83.946 Y92.446 E0.05386
G1 X84.437 Y91.483 E0.05222
G1 X85.020 Y90.493 E0.05550
G1 X85.646 Y89.571 E0.05386
G1 X86.329 Y88.691 E0.05386
G1 X87.066 Y87.855 E0.05386
G1 X87.803 Y87.118 E0.05035
G1 X88.317 Y87.211 F3600.000
G1 X87.523 Y86.713
G1 X88.382 Y85.956 F600.000 E0.05533
G1 X89.287 Y85.254 E0.05533
G1 X90.234 Y84.611 E0.05533
G1 X91.219 Y84.028 E0.05533
G1 X92.239 Y83.508 E0.05533
G1 X93.290 Y83.053 E0.05533
G1 X94.368 Y82.665 E0.05533
G1 X95.467 Y82.346 E0.05533
G1 X96.585 Y82.096 E0.05533
G1 X97.716 Y81.917 E0.05533
G1 X98.856 Y81.809 E0.05533
G1 X100.000 Y81.773 E0.05533
G1 X101.144 Y81.809 E0.05533
G1 X102.284 Y81.917 E0.05533
G1 X103.415 Y82.096 E0.05533
G1 X104.533 Y82.346 E0.05533
G1 X105.632 Y82.665 E0.05533
G1 X106.710 Y83.053 E0.05533
G1 X107.761 Y83.508 E0.05533
G1 X108.781 Y84.028 E0.05533
G1 X109.766 Y84.611 E0.05533
G1 X110.713 Y85.254 E0.05533
G1 X111.618 Y85.956 E0.05533
G1 X112.440 Y86.681 E0.05295
G1 X113.287 Y87.523 E0.05771
G1 X114.044 Y88.382 E0.05533
G1 X114.746 Y89.287 E0.05533
G1 X115.389 Y90.234 E0.05533
G1 X115.972 Y91.219 E0.05533
G1 X116.492 Y92.239 E0.05533
G1 X116.947 Y93.290 E0.05533
G1 X117.318 Y94.321 E0.05295
G1 X117.654 Y95.467 E0.05770
G1 X117.904 Y96.585 E0.05533
G1 X118.083 Y97.716 E0.05533
G1 X118.191 Y98.856 E0.05533
G1 X118.227 Y100.000 E0.05533
G1 X118.191 Y101.144 E0.05533
G1 X118.083 Y102.284 E0.05533
G1 X117.904 Y103.415 E0.05533
G1 X117.747 Y104.116 E0.03467
G1 X117.775 Y104.116 E0.00135
G1 X117.335 Y105.632 E0.07633
G1 X116.947 Y106.710 E0.05533
G1 X116.492 Y107.761 E0.05533
G1 X115.972 Y108.781 E0.05533
G1 X115.389 Y109.766 E0.05533
G1 X114.746 Y110.713 E0.05533
G1 X114.044 Y111.618 E0.05533
G1 X113.287 Y112.477 E0.05533
G1 X112.477 Y113.287 E0.05533
G1 X111.618 Y114.044 E0.05533
G1 X110.713 Y114.746 E0.05533
G1 X109.766 Y115.389 E0.05533
G1 X108.781 Y115.972 E0.05533
G1 X107.715 Y116.512 E0.05771
G1 X106.710 Y116.947 E0.05295
G1 X105.632 Y117.335 E0.05533
G1 X104.485 Y117.665 E0.05770
G1 X103.415 Y117.904 E0.05295
G1 X102.284 Y118.083 E0.05533
G1 X101.144 Y118.191 E0.05533
G1 X100.000 Y118.227 E0.05533
G1 X98.856 Y118.191 E0.05533
G1 X97.667 Y118.075 E0.05771
G1 X96.585 Y117.904 E0.05295
G1 X95.467 Y117.654 E0.05533
G1 X94.321 Y117.318 E0.05770
G1 X93.290 Y116.947 E0.05295
G1 X92.239 Y116.492 E0.05533
G1 X91.219 Y115.972 E0.05533
G1 X90.234 Y115.389 E0.05533
G1 X89.287 Y114.746 E0.05533
G1 X88.382 Y114.044 E0.05533
G1 X87.523 Y113.287 E0.05533
G1 X86.713 Y112.477 E0.05533
G1 X85.956 Y111.618 E0.05533
G1 X85.254 Y110.713 E0.05533
G1 X84.611 Y109.766 E0.05533
G1 X84.028 Y108.781 E0.05533
G1 X83.508 Y107.761 E0.05533
